!!!OTL: Liebesschmerz (87), S. 231
!!!id: T0245
**kern
*clefG2
*k[b-]
*F:
{8c
=1
4f
8f
8g
=2
4a
8a
8a
=3
8g
8b-
8a
8g
=4
4f}
8r
=5
{8g
=6
8a
8g
8a
16b-
16b-
=7
4cc
8cc
8cc
=8
8b-
8dd
8cc
8b-
=9
4a}
8r
=10
{16a
16b-
=11
8cc
8a
8dd
16cc
16cc
=12
8b-
8g
8b-
8b-
=13
8a
8f
8cc
8b-
=14
4a}
8r
=15
{8c
=16
8f
8g
8a
8b-
=17
8cc
8ff
8dd
8b-
=18
4cc
8cc
8b-
=19
4a}
8r
==
*-
!!!minrhy: 16
!!!meters: 2/4 ]  ZZ[4
!!!cut: Liebesschmerz (87), S. 231
!!!reg: Luxemburg
!!!trd: Singendes Volk, Esch-Alzette 1937 posth.
!!!rhy1: X_  X__X_X_  X__X_X_  X_X_X_X_  X__0_
!!!rhy2: X_  X_X_X_XX  X__X_X_  X_X_X_X_  X__0_
!!!key: T0245  16  F 2/4 ]  ZZ[4
!!!mod: SECHSTONSKALA DUR ?]  AMBITUS[11
!!!kad: 1333
!!!akz: 1321_3543_5433_1553_
!!!fot: 'a__as'b__c__
!!!for: 'a__b__c__d__
!!!fok: '^a_^a_^__^a_
!! PHRAS[AUFTAKTIG]
!!!fkt: Liebeslieder
!!!bem1: Rodershausen, fff Lutgen, 1930,
!!!bem2: mitgeteilt, hhh Josef Bour (Lehrer)
!! THILL, Mathias:
!! PR[33] 2K[0] 2G[20] 3K[4] 3G[4] 4A[2] 4Ü[0] 5A[0] 6K[0] 6G[0]
!! 7K[0] 7G[0] 8A[0] MEHR[0] SI[30] ABS[46] SR[20] SP[11]
!! ST[11] 2k[7] 2g[24] 3k[0] 3g[7] 4d[0] 4ü[0] 5d[0] 6k[0] 6g[0]
!! 7k[0] 7g[0] 8d[0] mehr[0] si[37] dm[-7] sr[30] sp[7]
!! 1F[45] 2F[45] 3F[8] 4F[0] LF[0] 2P[2] 3P[0] 4P[0] TRI[0] DF[4] AB[51]
!! TF[0] U3K[0] U3[0] U4[0] U4Ü[0] U5[0] U6K[0] U6[0] U7K[0] U7[0]
!! N1[11] N2K[0] N2[13] N3K[0] N3[32] N4[11] N4Ü[0] N5[28] N6K[0] N6[6]
!!!n7k: 0] N7[0] O1[0] O2K[0] O2[0] O3K[0] O3[0] HÖ[0
